assets/Smiling face/Flat/smiling_face_flat.svg

<svg width="32" height="32" viewBox="0 0 32 32" fill="none" xmlns="http://www.w3.org/2000/svg">
<path d="M15.9989 29.9978C25.3333 29.9978 29.9978 23.7303 29.9978 15.9989C29.9978 8.26751 25.3333 2 15.9989 2C6.66443 2 2 8.26751 2 15.9989C2 23.7303 6.66443 29.9978 15.9989 29.9978Z" fill="#FFB02E"/>
<path d="M11 16C11 17.1046 9.65685 18 8 18C6.34315 18 5 17.1046 5 16C5 14.8954 6.34315 14 8 14C9.65685 14 11 14.8954 11 16Z" fill="#FF6723"/>
<path d="M27 16C27 17.1046 25.6569 18 24 18C22.3431 18 21 17.1046 21 16C21 14.8954 22.3431 14 24 14C25.6569 14 27 14.8954 27 16Z" fill="#FF6723"/>
<path d="M6.97423 9.65811C7.11769 9.22774 7.47625 8.55049 8.06915 7.98761C8.65355 7.4328 9.45198 7 10.4999 7C10.776 7 10.9999 6.77614 10.9999 6.5C10.9999 6.22386 10.776 6 10.4999 6C9.1478 6 8.1129 6.5672 7.38064 7.26239C6.65687 7.94951 6.21542 8.77226 6.02555 9.34189C5.93823 9.60386 6.07981 9.88702 6.34178 9.97434C6.60375 10.0617 6.88691 9.92009 6.97423 9.65811Z" fill="#402A32"/>
<path d="M23.9309 7.98761C24.5238 8.55049 24.8823 9.22774 25.0258 9.65811C25.1131 9.92009 25.3963 10.0617 25.6582 9.97434C25.9202 9.88702 26.0618 9.60386 25.9745 9.34189C25.7846 8.77226 25.3431 7.94951 24.6194 7.26239C23.8871 6.5672 22.8522 6 21.5001 6C21.224 6 21.0001 6.22386 21.0001 6.5C21.0001 6.77614 21.224 7 21.5001 7C22.548 7 23.3465 7.4328 23.9309 7.98761Z" fill="#402A32"/>
<path d="M8.98156 13.1909C9.02964 12.9436 9.13971 12.6405 9.34896 12.4125C9.52829 12.2171 9.84698 12 10.4999 12C11.1417 12 11.4685 12.2216 11.6572 12.4288C11.8753 12.6683 11.9804 12.9737 12.0147 13.1711C12.1092 13.7152 12.6269 14.0797 13.171 13.9853C13.7152 13.8908 14.0797 13.373 13.9852 12.8289C13.9062 12.374 13.6799 11.6794 13.1357 11.082C12.562 10.4522 11.6955 10 10.4999 10C9.31564 10 8.45269 10.4313 7.87551 11.0601C7.32826 11.6564 7.10696 12.3533 7.01833 12.8091C6.91291 13.3513 7.26694 13.8762 7.80907 13.9816C8.3512 14.087 8.87614 13.733 8.98156 13.1909Z" fill="#402A32"/>
<path d="M19.9818 13.1909C20.0299 12.9436 20.14 12.6405 20.3492 12.4125C20.5285 12.2171 20.8472 12 21.5002 12C22.1419 12 22.4687 12.2216 22.6574 12.4288C22.8756 12.6683 22.9807 12.9737 23.0149 13.1711C23.1094 13.7152 23.6271 14.0797 24.1713 13.9853C24.7154 13.8908 25.0799 13.373 24.9854 12.8289C24.9064 12.374 24.6802 11.6794 24.1359 11.082C23.5623 10.4522 22.6957 10 21.5002 10C20.3159 10 19.4529 10.4313 18.8758 11.0601C18.3285 11.6564 18.1072 12.3533 18.0186 12.8091C17.9132 13.3513 18.2672 13.8762 18.8093 13.9816C19.3514 14.087 19.8764 13.733 19.9818 13.1909Z" fill="#402A32"/>
<path d="M9.40006 18.2001C9.84189 17.8687 10.4687 17.9582 10.8001 18.4001C11.1415 18.8553 12.8621 20.5001 16.0001 20.5001C19.1381 20.5001 20.8586 18.8553 21.2001 18.4001C21.5314 17.9582 22.1582 17.8687 22.6001 18.2001C23.0419 18.5314 23.1314 19.1582 22.8001 19.6001C22.1415 20.4782 19.8621 22.5001 16.0001 22.5001C12.1381 22.5001 9.85864 20.4782 9.20006 19.6001C8.86869 19.1582 8.95823 18.5314 9.40006 18.2001Z" fill="#402A32"/>
</svg>

<svg xmlns="http://www.w3.org/2000/svg" width="32" height="32" fill="none"><path fill="#FFB02E" d="M15.999 29.998c9.334 0 13.999-6.268 13.999-14 0-7.73-4.665-13.998-14-13.998C6.665 2 2 8.268 2 15.999c0 7.731 4.664 13.999 13.999 13.999Z"/><path fill="#FF6723" d="M11 16c0 1.105-1.343 2-3 2s-3-.895-3-2 1.343-2 3-2 3 .895 3 2ZM27 16c0 1.105-1.343 2-3 2s-3-.895-3-2 1.343-2 3-2 3 .895 3 2Z"/><path fill="#402A32" d="M6.974 9.658c.144-.43.502-1.108 1.095-1.67C8.654 7.433 9.452 7 10.5 7a.5.5 0 0 0 0-1c-1.351 0-2.386.567-3.118 1.262-.724.688-1.166 1.51-1.355 2.08a.5.5 0 0 0 .948.316ZM23.93 7.988c.594.562.952 1.24 1.096 1.67a.5.5 0 1 0 .948-.316c-.19-.57-.63-1.392-1.355-2.08C23.887 6.567 22.852 6 21.5 6a.5.5 0 0 0 0 1c1.048 0 1.846.433 2.43.988ZM8.982 13.19c.048-.246.158-.55.367-.777.18-.196.498-.413 1.15-.413.643 0 .97.222 1.158.429.218.24.323.545.358.742a1 1 0 0 0 1.97-.342 3.544 3.544 0 0 0-.85-1.747C12.563 10.452 11.696 10 10.5 10c-1.184 0-2.047.431-2.624 1.06-.548.596-.769 1.293-.858 1.75a1 1 0 1 0 1.964.38ZM19.982 13.19c.048-.246.158-.55.367-.777.18-.196.498-.413 1.151-.413.642 0 .969.222 1.157.429.219.24.324.545.358.742a1 1 0 0 0 1.97-.342 3.543 3.543 0 0 0-.85-1.747C23.563 10.452 22.696 10 21.5 10c-1.184 0-2.047.431-2.624 1.06-.548.596-.769 1.293-.857 1.75a1 1 0 1 0 1.963.38ZM9.4 18.2a1 1 0 0 1 1.4.2c.341.455 2.062 2.1 5.2 2.1 3.138 0 4.859-1.645 5.2-2.1a1 1 0 1 1 1.6 1.2c-.659.878-2.938 2.9-6.8 2.9-3.862 0-6.141-2.022-6.8-2.9a1 1 0 0 1 .2-1.4Z"/></svg>
